Numix/64/apps/goa-account-kerberos.svg

<?xml version="1.0" encoding="UTF-8" standalone="yes"?>
<svg xmlns="http://www.w3.org/2000/svg" xmlns:xlink="http://www.w3.org/1999/xlink" width="64px" height="64px" viewBox="0 0 48 48" version="1.1">
  <g id="surface1">
    <path style=" stroke:none;fill-rule:nonzero;fill:rgb(47.45098%,9.803922%,9.411765%);fill-opacity:1;" d="M 14.183594 37.5 C 15.835938 28.910156 11.382812 26.046875 7.203125 29.300781 L 5.308594 28.125 L 8.660156 24.328125 L 8.734375 22.519531 L 11.941406 20.472656 L 11.136719 18.421875 C 12.511719 19.023438 13.785156 18.933594 14.28125 20.351562 C 17.246094 20.710938 20.089844 23.789062 19.957031 25.835938 C 21.808594 20.472656 24.398438 17.609375 16.671875 13.75 L 16.429688 11.703125 L 21.265625 12.9375 L 22.796875 12.125 L 25.085938 13.539062 L 26.734375 12.304688 C 26.265625 13.480469 27.316406 13.808594 26.445312 14.804688 C 28.902344 16.851562 28.132812 23.277344 28.398438 25.929688 C 29.085938 23.847656 30.691406 21.527344 33.480469 20.890625 C 33.699219 19.625 35.480469 19.628906 36.5 18.722656 L 36.167969 20.742188 L 38.988281 22.667969 L 39.023438 24.507812 L 42.691406 28.578125 L 40.121094 29.8125 C 34.027344 25.109375 32.261719 31.296875 34.097656 37.5 Z M 14.183594 37.5 "/>
  </g>
</svg>

<svg xmlns="http://www.w3.org/2000/svg" width="64" height="64" viewBox="0 0 48 48">
 <g>
  <path d="m 14.184 37.5 c 1.652 -8.59 -2.801 -11.453 -6.98 -8.199 l -1.895 -1.176 l 3.352 -3.797 l 0.074 -1.809 l 3.207 -2.047 l -0.805 -2.051 c 1.375 0.602 2.648 0.512 3.145 1.93 c 2.965 0.359 5.809 3.438 5.676 5.484 c 1.852 -5.363 4.441 -8.227 -3.285 -12.09 l -0.242 -2.047 l 4.836 1.234 l 1.531 -0.813 l 2.289 1.414 l 1.648 -1.234 c -0.469 1.176 0.582 1.504 -0.289 2.5 c 2.457 2.047 1.688 8.473 1.953 11.125 c 0.688 -2.082 2.293 -4.402 5.082 -5.04 c 0.219 -1.266 2 -1.262 3.02 -2.168 l -0.332 2.02 l 2.82 1.926 l 0.035 1.84 l 3.668 4.07 l -2.57 1.234 c -6.094 -4.703 -7.859 1.484 -6.02 7.688 m -19.914 0" style="fill:#781918;fill-opacity:1;stroke:none;fill-rule:nonzero"/>
 </g>
</svg>
